public/imgs/products/rose-potion.svg

<svg style="height: 512px; width: 512px;" xmlns="http://www.w3.org/2000/svg" viewBox="0 0 512 512"><rect fill="#417505" fill-opacity="1" height="512" width="512" rx="32" ry="32"></rect><g class="" style="touch-action: none;" transform="translate(15,-11)"><path d="M62.522 17.166c-.412-.005-.826 0-1.243.012l-.003-.002c-9.747.288-20.823 5.23-29.843 14.25C16.242 46.62 12.596 67.62 23.31 78.334c7.99 7.988 21.715 8.026 34.47 1.22 16.166 30.05 42.153 57.687 71.437 76.374-18.77 24.156-29.97 54.48-29.97 87.375h18.69c0-28.9 9.826-55.474 26.342-76.53l2.156 39.405c2.91 2.622 5.82 5.224 8.732 7.832 4.356-12.66 10.49-24.082 18.785-33.344l13.057-14.578 2.568 19.4c3.6 27.192 6.476 50.554 9.908 67.99 15.483 13.69 30.924 27.27 46.223 40.555 5.405-2.125 11.38-3.683 17.63-5.1 18.31-4.148 40.412-6.538 60.058-9.835-37.685-43.742-77.43-88.55-117.246-132.668l-38.968-2.125c20.764-15.68 46.636-24.966 74.718-24.97v-18.69c-32.2.003-61.944 10.726-85.843 28.78-18.697-29.382-46.39-55.48-76.53-71.685 6.794-12.748 6.796-26.422-1.188-34.406-4.08-4.08-9.646-6.094-15.82-6.168zm319.773 2.682l-51.34 54.99 27.06 85.992L419.642 176l16.407-49.58-45.104-23.934-8.447 23.213 15.62 9.597 2.673-11.535 14.618 7.54-5.765 27.046-49.16-27.498L384 78l43.107 24.766 17.795-57.682-62.607-25.236zM203.79 32.305c-23.41 22.86-38.652 47.65-46.438 71.302.95 1.23 1.894 2.47 2.818 3.72 19.074-11.54 40.616-18.787 62.72-21.53-8.528-18.76-16.008-37.234-19.1-53.492zm139.29 3.027c-2.256.45-43.49 8.084-53.945 9.863l-13.783 97.078 75.595 85.483 116.612-14.272 24.63-100.953-44.635-18.63-4.655 15.092 12.768 8.856-26.49 79.732-85.477-21.86-31.407-99.814 30.787-40.574zm-99.756 99.93c-8.035.007-15.983.746-23.94 2.43a9462.44 9462.44 0 0 1 40.825 45.27c-.502-13.06-6.45-29.622-14.358-47.657-.843-.015-1.687-.044-2.528-.043zm49.067 53.3a233.982 233.982 0 0 0-15.814 12.737 6065.473 6065.473 0 0 1 40.684 46.173c13-2.56 26.228-6.366 38.982-11.928-21.436-4.717-51.77-8.685-60.724-26.168a234.736 234.736 0 0 1 9.285-6.922c-2.27-2.522-2.445-2.703-4.967-5.52-2.645-2.954-4.985-5.603-7.445-8.374zm-117.267 24.686c-7.373 17.72-11.074 40.45-10.783 63.322.422 33.24 5.29 63.63 16.855 79.524-18.443 39.608-40.69 81.563-69.343 102.687h-.004c-26.502 18.904-51.61 14.405-63.866.624-6.127-6.89-9.442-16.274-7.98-28.258 1.45-11.88 7.926-26.43 22.246-42.21 11.966-10.248 21.69-14.276 28.156-14.954 6.552-.687 9.854 1.214 12.336 4.327 4.963 6.226 5.048 20.812-7.48 31.327l12.013 14.316c19.1-16.03 22.676-41.487 10.082-57.29-6.297-7.9-17.036-12.51-28.9-11.268-11.865 1.245-24.787 7.553-38.885 19.76l-.41.357-.365.4c-16.57 18.11-25.296 36.22-27.34 52.973-2.045 16.753 2.874 32.043 12.564 42.94 19.38 21.79 56.224 25.322 88.68 2.175l.003-.002a160.698 160.698 0 0 0 16.992-13.967c29.887-7.726 58.962-10.74 92.3-37.436-21.193.977-40.373-1.7-53.542-15.13 13.405-25.285 23.347-52.815 34.78-79.87 4.153-9.833 8.482-19.624 13.212-29.285a8956.346 8956.346 0 0 1-13.22-11.605 47.82 47.82 0 0 1-1.582-.322l-5.325 15.978c-7.244-2.413-12.01-8.344-15.4-15.106-3.39-6.763-5.785-14.94-7.92-24.63-2.96-13.43-5.385-30.65-7.875-49.376zm192.2 78.113c-.95 3.686-2.002 7.268-3.15 10.75a3912.925 3912.925 0 0 1 38.073 45.722c15.284-8.49 29.937-19.356 42.938-32.674-23-3.926-50.907-14.148-77.862-23.797zm-19.044 1.066c-26.425 7.104-58.293 8.925-80.964 14.062-13.756 3.117-23.042 7.92-25.418 11.51-1.187 1.795-1.65 3.264-.867 6.848.784 3.583 3.327 9.055 8.585 16.04l.004.005.003.007c15.597 20.782 35.098 23.19 55.207 12.3 17.34-9.387 34.29-30.29 43.45-60.77zm9.195 26.633c-8.447 18.075-19.744 32.47-32.63 42.465 62.56 52.325 120.89 98.433 169.995 133.31-34.996-50.882-83.143-111.51-137.365-175.776z" fill="#fff" fill-opacity="1" transform="translate(25.6, 25.6) scale(0.9, 0.9) rotate(0, 256, 256)"></path></g></svg>

<svg style="height: 512px; width: 512px;" xmlns="http://www.w3.org/2000/svg" viewBox="0 0 512 512"><path d="M0 0h512v512H0z" fill="#ffffff" fill-opacity="1"></path><g class="" style="touch-action: none;" transform="translate(0,0)"><g><path d="M62.522 17.166C62.11 17.161 61.696 17.166 61.279 17.178L61.276 17.176C51.529 17.464 40.453 22.406 31.433 31.426C16.242 46.62 12.596 67.62 23.31 78.334C31.3 86.322 45.025 86.36 57.78 79.554C73.946 109.604 99.933 137.241 129.217 155.928C110.447 180.084 99.247 210.408 99.247 243.303L117.937 243.303C117.937 214.403 127.763 187.829 144.279 166.773L146.435 206.178C149.345 208.8 152.255 211.402 155.167 214.01C159.523 201.35 165.657 189.928 173.952 180.666L187.009 166.088L189.577 185.488C193.177 212.68 196.053 236.042 199.485 253.478C214.968 267.168 230.409 280.748 245.708 294.033C251.113 291.908 257.088 290.35 263.338 288.933C281.648 284.785 303.75 282.395 323.396 279.098C285.711 235.356 245.966 190.548 206.15 146.43L167.182 144.305C187.946 128.625 213.818 119.339 241.9 119.335L241.9 100.645C209.7 100.648 179.956 111.371 156.057 129.425C137.36 100.043 109.667 73.945 79.527 57.74C86.321 44.992 86.323 31.318 78.339 23.334C74.259 19.254 68.693 17.24 62.519 17.166Z" class="" fill="#417505" fill-opacity="1"></path><path d="M382.295 19.848L330.955 74.838L358.015 160.83L419.642 176L436.049 126.42L390.945 102.486L382.498 125.699L398.118 135.296L400.791 123.761L415.409 131.301L409.644 158.347L360.484 130.849L384 78L427.107 102.766L444.902 45.084L382.295 19.848Z" class="" fill="#d0021b" fill-opacity="1"></path><path d="M203.79 32.305C180.38 55.165 165.138 79.955 157.352 103.607C158.302 104.837 159.246 106.077 160.17 107.327C179.244 95.787 200.786 88.54 222.89 85.797C214.362 67.037 206.882 48.563 203.79 32.305Z" class="" fill="#417505" fill-opacity="1"></path><path d="M343.08 35.332C340.824 35.782 299.59 43.416 289.135 45.195L275.352 142.273L350.947 227.756L467.559 213.484L492.189 112.531L447.554 93.901L442.899 108.993L455.667 117.849L429.177 197.581L343.7 175.721L312.293 75.907L343.08 35.333Z" class="" fill="#d0021b" fill-opacity="1"></path><path d="M243.324 135.262C235.289 135.269 227.341 136.008 219.384 137.692C233.041 152.738 246.649 167.828 260.209 182.962C259.707 169.902 253.759 153.34 245.851 135.305C245.008 135.29 244.164 135.261 243.323 135.262Z" class="" fill="#417505" fill-opacity="1"></path><path d="M292.391 188.562C286.938 192.577 281.662 196.826 276.577 201.299C290.216 216.621 303.778 232.012 317.261 247.472C330.261 244.912 343.489 241.106 356.243 235.544C334.807 230.827 304.473 226.859 295.519 209.376C298.557 206.993 301.653 204.685 304.804 202.454C302.534 199.932 302.359 199.751 299.837 196.934C297.192 193.98 294.852 191.331 292.392 188.56Z" class="" fill="#417505" fill-opacity="1"></path><path d="M175.124 213.248C167.751 230.968 164.05 253.698 164.341 276.57C164.763 309.81 169.631 340.2 181.196 356.094C162.753 395.702 140.506 437.657 111.853 458.781L111.849 458.781C85.347 477.685 60.239 473.186 47.983 459.405C41.856 452.515 38.541 443.131 40.003 431.147C41.453 419.267 47.929 404.717 62.249 388.937C74.215 378.689 83.939 374.661 90.405 373.983C96.957 373.296 100.259 375.197 102.741 378.31C107.704 384.536 107.789 399.122 95.261 409.637L107.274 423.953C126.374 407.923 129.95 382.466 117.356 366.663C111.059 358.763 100.32 354.153 88.456 355.395C76.591 356.64 63.669 362.948 49.571 375.155L49.161 375.512L48.796 375.912C32.226 394.022 23.5 412.132 21.456 428.885C19.411 445.638 24.33 460.928 34.02 471.825C53.4 493.615 90.244 497.147 122.7 474L122.703 473.998C128.679 469.736 134.357 465.069 139.695 460.031C169.582 452.305 198.657 449.291 231.995 422.595C210.802 423.572 191.622 420.895 178.453 407.465C191.858 382.18 201.8 354.65 213.233 327.595C217.386 317.762 221.715 307.971 226.445 298.31C222.035 294.446 217.628 290.578 213.225 286.705C212.696 286.607 212.168 286.499 211.643 286.383L206.318 302.361C199.074 299.948 194.308 294.017 190.918 287.255C187.528 280.492 185.133 272.315 182.998 262.625C180.038 249.195 177.613 231.975 175.123 213.249Z" class="selected" fill="#417505" fill-opacity="1"></path><path d="M367.324 291.361C366.374 295.047 365.322 298.629 364.174 302.111C376.981 317.255 389.672 332.496 402.247 347.833C417.531 339.343 432.184 328.477 445.185 315.159C422.185 311.233 394.278 301.011 367.323 291.362Z" class="" fill="#417505" fill-opacity="1"></path><path d="M348.28 292.427C321.855 299.531 289.987 301.352 267.316 306.489C253.56 309.606 244.274 314.409 241.898 317.999C240.711 319.794 240.248 321.263 241.031 324.847C241.815 328.43 244.358 333.902 249.616 340.887L249.62 340.892L249.623 340.899C265.22 361.681 284.721 364.089 304.83 353.199C322.17 343.812 339.12 322.909 348.28 292.429Z" class="" fill="#417505" fill-opacity="1"></path><path d="M357.475 319.06C349.028 337.135 337.731 351.53 324.845 361.525C387.405 413.85 445.735 459.958 494.84 494.835C459.844 443.953 411.697 383.325 357.475 319.059Z" class="" fill="#417505" fill-opacity="1"></path></g></g></svg>
